!!!COM: Beethoven
!!!OTL: Zehn Variationen uber "la stessa, la stessissima" aus "Falstaff" von A. Salieri
!!!Variation: Variation 4 a
**function	**harm	**kern	**kern
*	*	*clefF4	*clefG2
*	*	*k[b-e-]	*k[b-e-]
*M4/4	*M4/4	*M4/4	*M4/4
*B-:	*B-:	*B-:	*B-:
=69	=69	=69	=69
1T	1I	4BBB- 4BB-	12DL
.	.	.	12F
.	.	.	12B-J
.	.	4r	12dL
.	.	.	12f
.	.	.	12b-J
.	.	2r	(12ccL
.	.	.	12a
.	.	.	12b-J
.	.	.	12ccL
.	.	.	12a
.	.	.	12b-J)
=70	=70	=70	=70
1T	1V7	4F 4c 4e-	(12ddL
.	.	.	12b
.	.	.	12ccJ
.	.	4r	12ee-L
.	.	.	12b
.	.	.	12ccJ)
.	.	2r	(12ddL
.	.	.	12b
.	.	.	12ccJ
.	.	.	12ee-L
.	.	.	12b
.	.	.	12ccJ)
=71	=71	=71	=71
1T	1V7	12FFL	4r
.	.	12AA	.
.	.	12CJ	.
.	.	4F	12AL
.	.	.	12c
.	.	.	12e-J
.	.	2r	12fL
.	.	.	12a
.	.	.	12ccJ
.	.	.	12ee-L
.	.	.	12b
.	.	.	12ccJ
=72	=72	=72	=72
1T	1I	4B- 4d 4f	(12ee-L
.	.	.	12cc#
.	.	.	12ddJ
.	.	4r	12ffL
.	.	.	12cc#
.	.	.	12ddJ)
.	.	2r	(12ee-L
.	.	.	12cc#
.	.	.	12ddJ
.	.	.	12ffL
.	.	.	12cc#
.	.	.	12ddJ)
=73	=73	=73	=73
1T	1IVc	12BBB-'L	4r
.	.	12EE-'	.
.	.	12GG'J	.
.	.	12BB-'L	[2.ee- [2.gg
.	.	12E-'	.
.	.	12G'J	.
.	.	12B-'L	.
.	.	12e-'	.
.	.	12g'J	.
.	.	4b-	.
=74	=74	=74	=74
1T	1I	12BBB-'L	4ee-] 4gg]
.	.	12DD'	.
.	.	12FF'J	.
.	.	12BB-'L	2.dd 2.ff
.	.	12D'	.
.	.	12F'J	.
.	.	12B-'L	.
.	.	12d'	.
.	.	12f'J	.
.	.	4b-	.
=75	=75	=75	=75
*	*	*^	*
4D	4V7	2F	(4c 4e-	12fL
.	.	.	.	12a
.	.	.	.	12ccJ
4D	4Ic	.	4B-) 4d	12ffL
.	.	.	.	12bb-
.	.	.	.	12dddJ
4D	4V7	2F	(4c 4e-	12ffL
.	.	.	.	12aa
.	.	.	.	12cccJ
4D	4Ic	.	4B-) 4d	12ffL
.	.	.	.	12bb-
.	.	.	.	12dddJ
*	*	*v	*v	*
=76	=76	=76	=76
1D	1V	4F 4A 4c	12fffL
.	.	.	12ccc
.	.	.	12aaJ
.	.	4r	12ffL
.	.	.	12cc
.	.	.	12aJ
.	.	4r	12fL
.	.	.	12c
.	.	.	12AJ
.	.	12FL	4r
.	.	12C	.
.	.	12AAJ	.
*-	*-	*-	*-
